X:7850
T:Janie and Duncan's 50th
R:strathspey
C:Brenda Stubbert, SOCAN
O:20th century Cape Breton
S:Tune ofthe Month, September 1999
D:Some Tasty Tunes, Brenda Stubbert, 1999
A:<http://www.capebretonet.com/Music/Stubbert>
N:Contacts ...
N:Recordings and bookings
N:..... <brenda@cranfordpub.com
N:Tune books and related recordings
N:..... Cranford Publications <http://www.cranfordpub.com>
H:Copyrights:Published by Stubbert Music, and Cranford Publications
Z:This abc transcription is for personal use only,
Z:provided this notice remains attached.
Z:Used by permission of the composer and publisher.
Z:Paul Stewart Cranford 
Q:288
L:1/8
M:C
K:Ador
(3(ABd)|e>de<g A2 (3(ABc)|B>AG>g e>dB>d|e>de<g A2 (3(ABc)|B>AB<G A2:|!
AB|A<aa>g a>ee<f|g>ed<g B>AB>G|A<aa>g a>ee<f|g>ed<B A2 (3ABB|!
A<aa>g a>ee<f|g>ed<g B>AG>B|c>AB<G A<ag>e|d<Bg<B A2|]!
